X:418
T:Ai vist lo lop lo renard la lebre
Z:Jack Campin, http://www.campin.me.uk/
F:Jack Campin's Nine-Note Tunebook
G:song from Languedoc
% last edit 15-06-2014
M:2/4
L:1/8
Q:1/4=60
K:GDor
dc BB/B/   |cc/c/ B/A/G|dc    BB/B/|cA  G2   |
GA B/B/B/B/|Bc    A2   |BA    GG/G/|A>A F/E/D|
GA BB/B/   |Bc    A2   |BA/B/ GG/G/|GF  G2  |]

